app/images/icons/info.svg

<svg fill="none" height="16" viewBox="0 0 16 16" width="16" xmlns="http://www.w3.org/2000/svg"><g fill="#6a737d"><path clip-rule="evenodd" d="m7.99984 2.00001c-3.31371 0-6 2.68629-6 5.99999s2.68629 6 6 6c3.31366 0 5.99996-2.6863 5.99996-6s-2.6863-5.99999-5.99996-5.99999zm-7.333336 5.99999c0-4.05008 3.283246-7.333328 7.333336-7.333328 4.05006 0 7.33336 3.283248 7.33336 7.333328 0 4.0501-3.2833 7.3333-7.33336 7.3333-4.05009 0-7.333336-3.2832-7.333336-7.3333z" fill-rule="evenodd"/><path clip-rule="evenodd" d="m7.99984 7.33334c.36819 0 .66666.29847.66666.66666v2.6667c0 .3682-.29847.6666-.66666.6666s-.66667-.2984-.66667-.6666v-2.6667c0-.36819.29848-.66666.66667-.66666z" fill-rule="evenodd"/><path d="m8.6665 5.33334c0 .36819-.29847.66666-.66666.66666s-.66667-.29847-.66667-.66666.29848-.66667.66667-.66667.66666.29848.66666.66667z"/></g></svg>

<svg width="16" height="16" viewBox="0 0 16 16" fill="none" xmlns="http://www.w3.org/2000/svg">
  <path fill-rule="evenodd" clip-rule="evenodd" d="M7.99984 2.00001C4.68613 2.00001 1.99984 4.6863 1.99984 8C1.99984 11.3137 4.68613 14 7.99984 14C11.3135 14 13.9998 11.3137 13.9998 8C13.9998 4.6863 11.3135 2.00001 7.99984 2.00001ZM0.666504 8C0.666504 3.94992 3.94975 0.666672 7.99984 0.666672C12.0499 0.666672 15.3332 3.94992 15.3332 8C15.3332 12.0501 12.0499 15.3333 7.99984 15.3333C3.94975 15.3333 0.666504 12.0501 0.666504 8Z" fill="#6A737D"/>
  <path fill-rule="evenodd" clip-rule="evenodd" d="M7.99984 7.33334C8.36803 7.33334 8.6665 7.63181 8.6665 8V10.6667C8.6665 11.0349 8.36803 11.3333 7.99984 11.3333C7.63165 11.3333 7.33317 11.0349 7.33317 10.6667V8C7.33317 7.63181 7.63165 7.33334 7.99984 7.33334Z" fill="#6A737D"/>
  <path d="M8.6665 5.33334C8.6665 5.70153 8.36803 6 7.99984 6C7.63165 6 7.33317 5.70153 7.33317 5.33334C7.33317 4.96515 7.63165 4.66667 7.99984 4.66667C8.36803 4.66667 8.6665 4.96515 8.6665 5.33334Z" fill="#6A737D"/>
</svg>
